X: 34718
T: Road To Glountane, The
R: barndance
M: 4/4
K: Dmajor
|:E2 E>F A2 A>B|c>ee>c B>A F2|1 (3faf e>c A>Bc>d|
e>cB>A F>AA>F:|2 a>fe>c A>Bc>d|ec (3BcB A2 A>F||
|:e3 f a2 a>f|e>cB>A F>A A2|c>BA>B c>BB>A|(3cec B>A F>A A2:|

